**kern	**kern
*part1	*part1
*staff2	*staff1
*I"Piano	*
*I'Pno.	*
*clefF4	*clefG2
*k[b-e-a-]	*k[b-e-a-]
*M3/4	*M3/4
=1	=1
*	*tremolo
2.r	16a- 16cc-XLL
.	16a- 16cc-X
.	16a- 16cc-X
.	16a- 16cc-X
.	16a- 16cc-X
.	16a- 16cc-X
.	16a- 16cc-X
.	16a- 16cc-X
.	16a- 16cc-X
.	16a- 16cc-X
.	16a- 16cc-X
.	16a- 16cc-XJJ
=2	=2
2.r	16a- 16cc-XLL
.	16a- 16cc-X
.	16a- 16cc-X
.	16a- 16cc-X
.	16a- 16cc-X
.	16a- 16cc-X
.	16a- 16cc-X
.	16a- 16cc-X
.	16a- 16cc-X
.	16a- 16cc-X
.	16a- 16cc-X
.	16a- 16cc-XJJ
=3	=3
2.r	16a- 16b-LL
.	16a- 16b-
.	16a- 16b-
.	16a- 16b-
.	16a- 16b-
.	16a- 16b-
.	16a- 16b-
.	16a- 16b-
.	16a- 16b-
.	16a- 16b-
.	16a- 16b-
.	16a- 16b-JJ
=4	=4
2.r	16a- 16b-LL
.	16a- 16b-
.	16a- 16b-
.	16a- 16b-
.	16a- 16b-
.	16a- 16b-
.	16a- 16b-
.	16a- 16b-
.	16a- 16b-
.	16a- 16b-
.	16a- 16b-
.	16a- 16b-JJ
=5	=5
2E-	16a- 16b-LL
.	16a- 16b-
.	16a- 16b-
.	16a- 16b-
.	16a- 16b-
.	16a- 16b-
.	16a- 16b-
.	16a- 16b-
4G	16a- 16b-
.	16a- 16b-
.	16a- 16b-
.	16a- 16b-JJ
=6	=6
2E-	16a- 16b-LL
.	16a- 16b-
.	16a- 16b-
.	16a- 16b-
.	16a- 16b-
.	16a- 16b-
.	16a- 16b-
.	16a- 16b-
4BB-	16a- 16b-
.	16a- 16b-
.	16a- 16b-
.	16a- 16b-JJ
=7	=7
*^	*
2.BB- 2.B-	8BBB-L	16f 16a- 16b- 16ddLL
.	.	16f 16a- 16b- 16dd
.	8BB-	16f 16a- 16b- 16dd
.	.	16f 16a- 16b- 16dd
.	8BB-	16f 16a- 16b- 16dd
.	.	16f 16a- 16b- 16dd
.	8BB-	16f 16a- 16b- 16dd
.	.	16f 16a- 16b- 16dd
.	8BB-	16f 16a- 16b- 16dd
.	.	16f 16a- 16b- 16dd
.	8BB-J	16f 16a- 16b- 16dd
.	.	16f 16a- 16b- 16ddJJ
=8	=8	=8
*tremolo	*	*
2.B-	8BB-L	16f 16a- 16b- 16dd 16ffLL
.	.	16f 16a- 16b- 16dd 16ff
.	8BB-	16f 16a- 16b- 16dd 16ff
.	.	16f 16a- 16b- 16dd 16ff
.	8BB-	16f 16a- 16b- 16dd 16ff
.	.	16f 16a- 16b- 16dd 16ff
.	8BB-	16f 16a- 16b- 16dd 16ff
.	.	16f 16a- 16b- 16dd 16ff
.	8BB-	16f 16a- 16b- 16dd 16ff
.	.	16f 16a- 16b- 16dd 16ff
.	8BB-J	16f 16a- 16b- 16dd 16ff
.	.	16f 16a- 16b- 16dd 16ffJJ
*	*	*Xtremolo
*Xtremolo	*	*
*v	*v	*
==	==
*-	*-
!!!system-decoration: {(s1,s2)}
